X:1
T:To Zanarkand
T:To Zanarkand
T:Final Fantasy X
T:Masahi Hamauzu
C:Masahi Hamauzu
%%score { 1 | 2 }
L:1/8
M:4/4
K:C
V:1 treble nm="Piano" snm="Pno."
V:2 bass 
V:1
!8va(! e'2 e2 g2 b2 | e'2 [d'^f']2 [e'g']4- | [e'g']8 | d'2 d2 ^f2 a2 | d'2 [c'e']2 [d'^f']4- | %5
 [d'f']8 | b4 b4 | b4 b4 | a6 d'2 | ^f8 | d2 ^f2 b4- | b8 | e'4 e'4 | e'4 e'4 | d'6 g'2 | c'8- | %16
 c'6 c2 | f2 g2 a2!8va)! c2 |: [Ge]6 B2 | e2 ^f2 [Bg]4 | [A^f]4 [Ge]4 | [_Gd]6 [=Ge]2 | [Ad]4 B4- | %23
 B8 | [Ge]6 B2 | e2 ^f2 [eg]4 | [d^f]4 [eg]4 | [_ga]4 [e=g]2 z2 | [^fa]4 [gb]4- | [gb]8 | %30
 [Ge]6 B2 | e2 ^f2 [Bg]4 | [A^f]6 [Ge]2 | [_Ge]6 [=Ge]2 | [Ad]4 B4- | B4 G2 [_GA]2 | [EB]4 [EB]4 | %37
 [EB]4 [_G-B]4 | [^F-A]4 [_Gd]4 | [EG]6 G2 | ^F2 D2 E4 | C2 E2 G2 c2 | e2 E2 G2 c2 | e2 g6 | a8 | %45
 [c'e']4 [ae']4 | d'4 [fc']4 | [gb]8 | !Mi!e'3- [ee'-]/[ge']/ e'4- | e'8 | [^fb]8 | %51
 !Fa#!^f'3 a/^c'/ f'4- | f'8 | [ea]8 | e'3 _g/b/ e'4 | _e'8 | B8 | [_G_g]4 [Ag]4 | [Ge]4 [^Fd]4 | %59
 [E_d]8 | [Ba]4 [A_da]4- | [Ada]8 | [_A^c_a]4 e4 | _d4 [GB]4- | [GB]4 ^f4 | A6 _G2 | %66
 [EA]4 [_EB]4- | [EB]8- | [EB]8- | [EB]8 |] %70
V:2
!8va(! [EB]8 | D4 C4- | C8 | [DA]8 | C4 B,4- | B,8 | C2 E2 d2 c2 | e2 ^f2 [eg]4- | [eg]8 | %9
 B,2 _G2 B2 ^c2 | z8 | z8 | A,2 E2 B2 A2 | c2 d2 [Ace]4- | [Ace]8 | F,2 C2 F2 G2 | A2 c2 f2 z2 | %17
 z8!8va)! |: E,2 B,2 E2 ^F2 | G2 A2 C,2 G,2 | D2 E2 C2 G2 | D,2 A,2 D2 E2 | _G2 C2 G,,2 D,2 | %23
 G,2 A,2 B,2 D2 | E,2 B,2 E2 ^F2 | G2 A2 C,2 G,2 | D2 E2 C2 G2 | D,2 A,2 D2 E2 | _G2 D2 G,,2 D,2 | %29
 G,2 A,2 B,2 D2 | E,2 B,2 E2 ^F2 | G2 A2 C,2 G,2 | D2 E2 C2 G2 | D,2 A,2 D2 E2 | _G2 C2 G,,2 D,2 | %35
 G,2 A,2 B,2 ^F,2 | C,2 G,2 C2 G,2 | B,2 G,2 D,4- | D,8 | A,,2 E,2 A,4 | [B,,^F,]4 C,2 G,2 | z8 | %42
 z8 | z8 |!8va(! A,2 E2 A2 B2 | c2 e2 F,2 C2 | F2 G2 A2 c2 | G,2 D2 G2 A2 | B2 d2 E,2 B,2 | %49
 E2 _G2 =G2 B2 | B,2 ^F2 B2 _d2 | d2 e2 ^F4- | F8 | A,2 E2 A2 B2 | c2 A2 [B,B]4- | %55
 [B,B]4!8va)! B,2 A,2 | B,,2 _G,2 B,2 _D2 | D2 _G,2 G,,2 D,2 | G,2 A,2 B,2 D,2 | A,,2 E,2 A,2 B,2 | %60
 _D2 E,2 ^F,,2 ^C,2 | ^F,2 ^G,2 A,2 B,2 | [^C,^G,]8- | [C,G,]4 G,,4- | G,,4 [B,D]4 | [^F,^C]8 | %66
 A,4 B,,,2 B,,2 | _E,2 _G,2 B,2 ^D2 | ^F8- | F8 |] %70

